images/change-wallpaper.svg

<?xml version="1.0" encoding="utf-8"?>
<!-- Generated by IcoMoon.io -->
<!DOCTYPE svg PUBLIC "-//W3C//DTD SVG 1.1//EN" "http://www.w3.org/Graphics/SVG/1.1/DTD/svg11.dtd">
<svg version="1.1" xmlns="http://www.w3.org/2000/svg" xmlns:xlink="http://www.w3.org/1999/xlink" width="30" height="30" viewBox="0 0 30 30">
<g>
	<line stroke-width="1" x1="" y1="" x2="" y2="" stroke="#449FDB" opacity=""></line>
</g>
	<path d="M8.75 10.75h12.5v2.945l1.576-1.576v-2.524c0-0.327-0.267-0.595-0.596-0.595h-14.636c-0.328 0-0.594 0.268-0.594 0.595v10.623c0 0.329 0.266 0.595 0.594 0.595h6.54l1.562-1.562h-6.946v-8.501zM16.46 20.709h1.794l-1.794-1.798v1.798zM22.23 20.812c0.328 0 0.596-0.268 0.596-0.597v-1.438l-2.034 2.035h1.438zM25.295 12.094c-0.555-0.557-1.236-0.777-1.52-0.494l-6.811 6.81 2.014 2.012 6.811-6.808c0.285-0.284 0.063-0.964-0.494-1.52z" fill="#000000"></path>
	<path d="M13 13.5c0 0.828-0.672 1.5-1.5 1.5s-1.5-0.672-1.5-1.5c0-0.828 0.672-1.5 1.5-1.5s1.5 0.672 1.5 1.5z" fill="#000000"></path>
</svg>

<?xml version="1.0" encoding="UTF-8" standalone="no"?>
<!-- Created with Inkscape (http://www.inkscape.org/) -->

<svg
   xmlns:dc="http://purl.org/dc/elements/1.1/"
   xmlns:cc="http://creativecommons.org/ns#"
   xmlns:rdf="http://www.w3.org/1999/02/22-rdf-syntax-ns#"
   xmlns:svg="http://www.w3.org/2000/svg"
   xmlns="http://www.w3.org/2000/svg"
   xmlns:inkscape="http://www.inkscape.org/namespaces/inkscape"
   version="1.1"
   width="30"
   height="30"
   viewBox="0 0 30 30"
   id="svg2">
  <metadata
     id="metadata10">
    <rdf:RDF>
      <cc:Work
         rdf:about="">
        <dc:format>image/svg+xml</dc:format>
        <dc:type
           rdf:resource="http://purl.org/dc/dcmitype/StillImage" />
      </cc:Work>
    </rdf:RDF>
  </metadata>
  <defs
     id="defs8" />
  <path
     d="m 8.75,10.75 h 12.5 v 2.945 l 1.576,-1.576 V 9.59 c 0,-0.327 -0.267,-0.595 -0.596,-0.595 H 7.594 C 7.266,9 7,9.267 7,9.595 v 10.622 c 0,0.33 0.266,0.595 0.594,0.595 h 6.54 L 15.696,19.25 H 8.75 v -8.5 z m 7.71,9.96 h 1.794 l -1.794,-1.8 v 1.8 z m 5.77,0.102 c 0.328,0 0.596,-0.268 0.596,-0.597 v -1.438 l -2.034,2.035 h 1.438 z m 3.065,-8.718 C 24.74,11.537 24.059,11.317 23.775,11.6 l -6.81,6.81 2.013,2.012 6.81,-6.808 c 0.286,-0.284 0.064,-0.964 -0.493,-1.52 z M 13,13.5 C 13,14.328 12.328,15 11.5,15 10.672,15 10,14.328 10,13.5 10,12.672 10.672,12 11.5,12 c 0.828,0 1.5,0.672 1.5,1.5 z"
     inkscape:connector-curvature="0"
     id="path4" />
</svg>
